!!!OTL: WENNS KUMMT UM WEIHNACHTE
!!!ARE: Europa, Mitteleuropa, Deutschland, Kuhlaendchen
!!!SCT: Z0201
!!!YEM: Copyright 1995, estate of Helmut Schaffrath.
**kern
*ICvox
*Ivox
*M3/8
*k[b-e-]
*B-:
{8f
=1
16b-
16dd
8ff
8ff
=2
16ff
16ee-
4ee-}
=3
{8dd
8.dd
16dd
=4
16dd
16cc
8.cc}
{16ee-
=5
16dd
16cc
8b-
8a
=6
4b-}
{8f
=7
16b-
16dd
8ff
8dd
=8
16dd
16cc
8.cc}
{16f
=9
16b-
16dd
8ff
8dd
=10
8dd
8cc}
{8f
=11
16b-
16dd
8ff
8ff
=12
16ff
16ee-
8.ee-}
{16ee-
=13
16dd
16cc
8b-
8a
=14
4b-}
==
!!!AGN: Schiffer -, Handwerker - Lied
!!!ONB: ESAC (Essen Associative Code) Database: ZUCCAL
!!!AMT: simple triple
!!!AIN: vox
!!!EED: Helmut Schaffrath
!!!EEV: 1.0
*-
